raw/symbols/apt.svg

<svg width="42" height="42" viewBox="0 0 42 42" fill="none" xmlns="http://www.w3.org/2000/svg">
<rect width="42" height="42" rx="21" fill="#F3F3F3"/>
<path fill-rule="evenodd" clip-rule="evenodd" d="M35.3921 27.5147C35.9272 26.3343 36.3213 25.0764 36.5531 23.7625H20.5017L18.0339 21.7883L15.5662 23.7625H5.44698C5.67871 25.0764 6.07287 26.3343 6.60799 27.5147H14.3863L16.854 25.5405L19.3218 27.5147H35.3921ZM32.8315 31.4632H15.3734L12.9056 29.489L10.4379 31.4632H9.16855C12.0622 34.733 16.2904 36.7944 21 36.7944C25.7097 36.7944 29.9379 34.733 32.8315 31.4632ZM24.4501 19.8141H36.7498C36.6479 18.4421 36.3707 17.119 35.9406 15.867H26.4291L23.9613 13.8928L21.4936 15.867H6.05944C5.62932 17.119 5.35215 18.4421 5.25024 19.8141H19.5146L21.9823 17.8398L24.4501 19.8141ZM8.07731 11.9185C10.9355 7.85916 15.6581 5.20703 21 5.20703C26.342 5.20703 31.0645 7.85916 33.9227 11.9185H30.3775L27.9098 9.94434L25.442 11.9185H8.07731Z" fill="#0A0B0D"/>
</svg>

<svg xmlns="http://www.w3.org/2000/svg" width="42" height="42" fill="none"><rect width="42" height="42" fill="#F3F3F3" rx="21"/><path fill="#0A0B0D" fill-rule="evenodd" d="M35.392 27.515c.535-1.18.93-2.439 1.161-3.753H20.502l-2.468-1.974-2.468 1.974H5.447a15.677 15.677 0 0 0 1.161 3.753h7.778l2.468-1.974 2.468 1.974h16.07Zm-2.56 3.948H15.372l-2.467-1.974-2.468 1.974h-1.27A15.755 15.755 0 0 0 21 36.794c4.71 0 8.938-2.061 11.831-5.33ZM24.45 19.814h12.3a15.721 15.721 0 0 0-.81-3.947h-9.51l-2.469-1.974-2.467 1.974H6.059a15.72 15.72 0 0 0-.809 3.947h14.265l2.467-1.974 2.468 1.974ZM8.077 11.918C10.935 7.86 15.658 5.207 21 5.207s10.064 2.652 12.923 6.712h-3.546L27.91 9.944l-2.468 1.974H8.077Z" clip-rule="evenodd"/></svg>
